icons/boxing-fill.svg

<svg xmlns="http://www.w3.org/2000/svg" width="24" height="24" fill="none"><g clip-path="url(#a)"><g><path fill="#121212" d="M9.50002 11L9.64402 11.007C9.99065 11.0402 10.3149 11.193 10.5612 11.4391C10.8075 11.6852 10.9606 12.0094 10.994 12.356L11 12.5L10.993 12.644C10.9598 12.9906 10.807 13.3149 10.5609 13.5612C10.3148 13.8075 9.99062 13.9605 9.64402 13.994L9.50002 14H6.00002V16H9.50002C11.2 16 12.617 14.788 12.934 13.181L12.964 13.001L19 13C19.711 13 20.388 12.851 21 12.584V17C21 17.6204 20.8077 18.2256 20.4495 18.7323C20.0913 19.2389 19.5849 19.622 19 19.829V21C19 21.2652 18.8947 21.5196 18.7071 21.7071C18.5196 21.8946 18.2652 22 18 22H6.00002C5.73481 22 5.48045 21.8946 5.29292 21.7071C5.10538 21.5196 5.00002 21.2652 5.00002 21V19.83C4.41495 19.623 3.90844 19.2397 3.55026 18.7329C3.19208 18.226 2.99984 17.6206 3.00002 17V13C3.00002 12.4696 3.21074 11.9609 3.58581 11.5858C3.96088 11.2107 4.46959 11 5.00002 11H9.50002ZM22 7.5V8L21.995 8.176C21.952 8.90959 21.6411 9.60186 21.1215 10.1215C20.6019 10.6411 19.9096 10.9519 19.176 10.995L19 11H12.663C12.3942 10.4334 11.9781 9.9495 11.4583 9.59873C10.9385 9.24796 10.334 9.04326 9.70802 9.006L9.50002 9H5.00002C4.27102 9 3.58802 9.195 2.99902 9.536L3.00002 6C3.00002 4.93913 3.42145 3.92172 4.1716 3.17157C4.92174 2.42143 5.93916 2 7.00002 2H16.5C17.9587 2 19.3577 2.57946 20.3891 3.61091C21.4206 4.64236 22 6.04131 22 7.5Z"/></g></g><defs><clipPath id="a"><rect width="24" height="24" fill="white"/></clipPath></defs></svg>

<svg width="24" height="24" fill="none" xmlns="http://www.w3.org/2000/svg"><g clip-path="url(#a)"><path d="m9.5 11 .144.007a1.5 1.5 0 0 1 1.35 1.349L11 12.5l-.007.144a1.5 1.5 0 0 1-1.349 1.35L9.5 14H6v2h3.5c1.7 0 3.117-1.212 3.434-2.819l.03-.18L19 13c.711 0 1.388-.149 2-.416V17a3 3 0 0 1-2 2.829V21a1 1 0 0 1-1 1H6a1 1 0 0 1-1-1v-1.17A3.001 3.001 0 0 1 3 17v-4a2 2 0 0 1 2-2h4.5ZM22 7.5V8l-.005.176a3 3 0 0 1-2.819 2.819L19 11h-6.337a3.5 3.5 0 0 0-2.955-1.994L9.5 9H5a3.98 3.98 0 0 0-2.001.536L3 6a4 4 0 0 1 4-4h9.5A5.5 5.5 0 0 1 22 7.5Z" /></g><defs><clipPath id="a"><path fill="#fff" d="M0 0h24v24H0z"/></clipPath></defs></svg>
